X:435
T: Katie's Ghost
C: BB
R: reel
Q: 1/8=350
M: 4/4
L: 1/8
K: Edor
D|"Em"E2 GE BEGE|"Bm"FAdB "D"AFED|"Em"E2 GE BEGE|"D"FADF "Em"E3 D|
"Em"E2 GE BEGE|"Bm"FABd "D"ABdf|"C"ge (3ede "G"dB (3BAB|"Bm"ABFD "Em"E3 :|
D|: "G"G2 BG dG (3GFG|"Em"edef gedB |"G"G2 BG dG (3GFG|"Bm"FAAB dBAB |
"G"G2 BG dG (3GFG|"Em"edef "G"gfga| "G"bg (3gfg "Em"egdB|1 "Bm"ABFD "Em"GFED :|2\
"Bm" ABFD "Em" E3 ||
%%%%%%%%%%%%%%%%%%%%%%%%%%%%%%%%%%%%%%%%%%%
